src/images_karasa_jaga_svg/cmd/sc_hideallnotes.svg

<svg height="16" viewBox="0 0 4.2333333 4.2333335" width="16" xmlns="http://www.w3.org/2000/svg" xmlns:xlink="http://www.w3.org/1999/xlink"><radialGradient id="a" cx="11.026738" cy="7.9995" gradientTransform="matrix(.5501517 .00170856 -.0015724 .6011785 7.426983 48.544705)" gradientUnits="userSpaceOnUse" r="156.98399"><stop offset=".0765" stop-color="#ffce05"/><stop offset=".18870001" stop-color="#f9d940"/><stop offset=".3467" stop-color="#fde446"/><stop offset=".4294" stop-color="#ffeb55"/><stop offset=".6882" stop-color="#ffeb55"/><stop offset=".7281" stop-color="#fee951"/><stop offset=".7641" stop-color="#fde446"/><stop offset=".7987" stop-color="#fadb34"/><stop offset=".8322" stop-color="#f7cf1a"/><stop offset=".8588" stop-color="#f3c300"/><stop offset=".9208" stop-color="#fbd400"/><stop offset=".9706" stop-color="#fd0"/></radialGradient><linearGradient id="b" gradientTransform="matrix(.5520917 0 0 .8167341 7.874148 48.018828)" gradientUnits="userSpaceOnUse" x1="-19.342056" x2="152.20572" y1="-36.226715" y2="93.202377"><stop offset="0" stop-color="#fff"/><stop offset=".25" stop-color="#fff" stop-opacity=".449275"/><stop offset=".45480227" stop-color="#fff" stop-opacity=".698039"/><stop offset=".5" stop-color="#fff" stop-opacity=".942029"/><stop offset="1" stop-color="#fff" stop-opacity="0"/></linearGradient><g transform="matrix(.125 0 0 .125 0 -32.89262)"><g transform="matrix(.2291366 -.13229205 .13229205 .2291366 -2.269947 263.750145)"><g fill="none"><path d="m75.499304 104.76716-1.139351 14.92505-14.768513 2.35887-47.955076-.14893.188173-69.512388 63.811827-.02613z" opacity=".1" stroke="#000" stroke-width="11.636364"/><path d="m75.499304 104.76716-1.139351 14.92505-14.768513 2.35887-47.955076-.14893.188173-69.512388 63.811827-.02613z" opacity=".15" stroke="#000" stroke-width="8.727273"/><g stroke="#e3ad00"><path d="m75.499304 104.76716-1.139351 14.92505-14.768513 2.35887-47.955076-.14893.188173-69.512388 63.811827-.02613z" opacity=".505556" stroke-width="5.818182"/><path d="m75.499304 104.76716-1.139351 14.92505-14.768513 2.35887-47.955076-.14893.188173-69.512388 63.811827-.02613z" opacity=".505556" stroke-width="2.909091"/></g></g><path d="m75.499304 104.76716-1.139351 14.92505-14.768513 2.35887-47.955076-.14893.188173-69.512388 63.811827-.02613z" fill="url(#a)"/><g fill="url(#b)"><path d="m11.766345 52.314266h63.971756v14.911496h-63.971756z" opacity=".868852" transform="matrix(.9999912 .00420424 -.00193197 .9999981 0 0)"/><path d="m11.766345 52.314266h63.971756v14.911496h-63.971756z" opacity=".868852" transform="matrix(.9999912 .00420424 -.00193197 .9999981 0 0)"/></g></g><g transform="matrix(.26458416 0 0 .26458416 -.185007 262.663683)"><g fill="none"><path d="m75.499304 104.76716-1.139351 14.92505-14.768513 2.35887-47.955076-.14893.188173-69.512388 63.811827-.02613z" opacity=".1" stroke="#000" stroke-width="11.636364"/><path d="m75.499304 104.76716-1.139351 14.92505-14.768513 2.35887-47.955076-.14893.188173-69.512388 63.811827-.02613z" opacity=".15" stroke="#000" stroke-width="8.727273"/><g stroke="#e3ad00"><path d="m75.499304 104.76716-1.139351 14.92505-14.768513 2.35887-47.955076-.14893.188173-69.512388 63.811827-.02613z" opacity=".505556" stroke-width="5.818182"/><path d="m75.499304 104.76716-1.139351 14.92505-14.768513 2.35887-47.955076-.14893.188173-69.512388 63.811827-.02613z" opacity=".505556" stroke-width="2.909091"/></g></g><path d="m75.499304 104.76716-1.139351 14.92505-14.768513 2.35887-47.955076-.14893.188173-69.512388 63.811827-.02613z" fill="url(#a)"/><g fill="url(#b)"><path d="m11.766345 52.314266h63.971756v14.911496h-63.971756z" opacity=".868852" transform="matrix(.9999912 .00420424 -.00193197 .9999981 0 0)"/><path d="m11.766345 52.314266h63.971756v14.911496h-63.971756z" opacity=".868852" transform="matrix(.9999912 .00420424 -.00193197 .9999981 0 0)"/></g></g><path d="m82.986328 4.0332031a5.8308785 5.8308785 0 0 0 -.164062.0058594 5.8308785 5.8308785 0 0 0 -2.634766.7734375l-50.742188 29.326172.121094-.06055a5.8308785 5.8308785 0 0 0 -.300781.162109 5.8308785 5.8308785 0 0 0 -.01367.0078 5.8308785 5.8308785 0 0 0 -.002 0 5.8308785 5.8308785 0 0 0 -.02148.01172l-4.416016 2.52539a5.8308785 5.8308785 0 0 0 -2.162109 7.96875l.01563.02734-6.082032.002h-.0625l-5.527343-.02539a5.8308785 5.8308785 0 0 0 -5.8574222 5.81836l-.029261 14.91208a5.8308785 5.8308785 0 0 0 .1425782 1.275391l-.1425781 53.347658a5.8308785 5.8308785 0 0 0 5.8125001 5.8457l25.787109.0801 53.921875-114.791036-2.333984-4.058594a5.8308785 5.8308785 0 0 0 -5.054688-2.9238281h1.472657a5.8308785 5.8308785 0 0 0 -1.726563-.2304688z" fill="#525252" opacity=".57" transform="matrix(.26458333 0 0 .26458333 0 263.13332)"/><path d="m7.1894045 295.84573c.7937502.39688 1.5086542.75458 2.3389162 1.16945.8212673-1.77747 15.5038323-30.98264 16.2764163-32.65691-.79428-.39688-1.509184-.7546-2.339446-1.16946-.820738 1.77748-15.5033033 30.98316-16.2758865 32.65692z" fill="#555" stroke-width=".529167"/></g></svg>

<?xml version="1.0" encoding="UTF-8" standalone="no"?>
<!-- Created with Inkscape (http://www.inkscape.org/) -->

<svg
   xmlns:dc="http://purl.org/dc/elements/1.1/"
   xmlns:cc="http://creativecommons.org/ns#"
   xmlns:rdf="http://www.w3.org/1999/02/22-rdf-syntax-ns#"
   xmlns:svg="http://www.w3.org/2000/svg"
   xmlns="http://www.w3.org/2000/svg"
   xmlns:xlink="http://www.w3.org/1999/xlink"
   xmlns:sodipodi="http://sodipodi.sourceforge.net/DTD/sodipodi-0.dtd"
   xmlns:inkscape="http://www.inkscape.org/namespaces/inkscape"
   width="128"
   height="128"
   viewBox="0 0 33.866666 33.866668"
   version="1.1"
   id="svg8"
   inkscape:version="0.92.3 (unknown)"
   sodipodi:docname="sc_hideallnotes.svg"
   inkscape:export-filename="/home/rizmut/Dokumen/Rizmut/Github/libreoffice-style-karasa-jaga/build/images_karasa_jaga/cmd/sc_hideallnotes.png"
   inkscape:export-xdpi="12"
   inkscape:export-ydpi="12">
  <defs
     id="defs2">
    <radialGradient
       inkscape:collect="always"
       xlink:href="#XMLID_2_"
       id="radialGradient3416"
       gradientUnits="userSpaceOnUse"
       gradientTransform="matrix(0.5501517,0.00170856,-0.0015724,0.6011785,7.4269827,48.544705)"
       cx="11.026738"
       cy="7.9994998"
       fx="11.026738"
       fy="7.9994998"
       r="156.98399" />
    <radialGradient
       id="XMLID_2_"
       cx="11.026738"
       cy="7.9994998"
       r="156.98399"
       gradientUnits="userSpaceOnUse"
       fx="11.026738"
       fy="7.9994998">
      <stop
         offset="0.0765"
         style="stop-color:#ffce05;stop-opacity:1;"
         id="stop12" />
      <stop
         offset="0.18870001"
         style="stop-color:#f9d940;stop-opacity:1;"
         id="stop14" />
      <stop
         offset="0.3467"
         style="stop-color:#FDE446"
         id="stop16" />
      <stop
         offset="0.4294"
         style="stop-color:#FFEB55"
         id="stop18" />
      <stop
         offset="0.6882"
         style="stop-color:#FFEB55"
         id="stop20" />
      <stop
         offset="0.7281"
         style="stop-color:#FEE951"
         id="stop22" />
      <stop
         offset="0.7641"
         style="stop-color:#FDE446"
         id="stop24" />
      <stop
         offset="0.7987"
         style="stop-color:#FADB34"
         id="stop26" />
      <stop
         offset="0.8322"
         style="stop-color:#F7CF1A"
         id="stop28" />
      <stop
         offset="0.8588"
         style="stop-color:#F3C300"
         id="stop30" />
      <stop
         offset="0.9208"
         style="stop-color:#FBD400"
         id="stop32" />
      <stop
         offset="0.9706"
         style="stop-color:#FFDD00"
         id="stop34" />
    </radialGradient>
    <linearGradient
       inkscape:collect="always"
       xlink:href="#linearGradient2221"
       id="linearGradient3418"
       gradientUnits="userSpaceOnUse"
       gradientTransform="matrix(0.5520917,0,0,0.8167341,7.8741477,48.018828)"
       x1="-19.342056"
       y1="-36.226715"
       x2="152.20572"
       y2="93.202377" />
    <linearGradient
       id="linearGradient2221">
      <stop
         style="stop-color:#ffffff;stop-opacity:1;"
         offset="0"
         id="stop2223" />
      <stop
         id="stop2233"
         offset="0.25"
         style="stop-color:#ffffff;stop-opacity:0.44927537;" />
      <stop
         style="stop-color:#ffffff;stop-opacity:0.69803922;"
         offset="0.45480227"
         id="stop2235" />
      <stop
         id="stop2231"
         offset="0.5"
         style="stop-color:#ffffff;stop-opacity:0.942029;" />
      <stop
         style="stop-color:#ffffff;stop-opacity:0;"
         offset="1"
         id="stop2225" />
    </linearGradient>
    <radialGradient
       inkscape:collect="always"
       xlink:href="#XMLID_2_"
       id="radialGradient2399"
       gradientUnits="userSpaceOnUse"
       gradientTransform="matrix(0.5501517,0.00170856,-0.0015724,0.6011785,7.4269827,48.544705)"
       cx="11.026738"
       cy="7.9994998"
       fx="11.026738"
       fy="7.9994998"
       r="156.98399" />
    <radialGradient
       id="radialGradient1113"
       cx="11.026738"
       cy="7.9994998"
       r="156.98399"
       gradientUnits="userSpaceOnUse"
       fx="11.026738"
       fy="7.9994998">
      <stop
         offset="0.0765"
         style="stop-color:#ffce05;stop-opacity:1;"
         id="stop1089" />
      <stop
         offset="0.18870001"
         style="stop-color:#f9d940;stop-opacity:1;"
         id="stop1091" />
      <stop
         offset="0.3467"
         style="stop-color:#FDE446"
         id="stop1093" />
      <stop
         offset="0.4294"
         style="stop-color:#FFEB55"
         id="stop1095" />
      <stop
         offset="0.6882"
         style="stop-color:#FFEB55"
         id="stop1097" />
      <stop
         offset="0.7281"
         style="stop-color:#FEE951"
         id="stop1099" />
      <stop
         offset="0.7641"
         style="stop-color:#FDE446"
         id="stop1101" />
      <stop
         offset="0.7987"
         style="stop-color:#FADB34"
         id="stop1103" />
      <stop
         offset="0.8322"
         style="stop-color:#F7CF1A"
         id="stop1105" />
      <stop
         offset="0.8588"
         style="stop-color:#F3C300"
         id="stop1107" />
      <stop
         offset="0.9208"
         style="stop-color:#FBD400"
         id="stop1109" />
      <stop
         offset="0.9706"
         style="stop-color:#FFDD00"
         id="stop1111" />
    </radialGradient>
    <linearGradient
       inkscape:collect="always"
       xlink:href="#linearGradient2221"
       id="linearGradient1852"
       gradientUnits="userSpaceOnUse"
       gradientTransform="matrix(0.5520917,0,0,0.8167341,7.8741477,48.018828)"
       x1="-19.342056"
       y1="-36.226715"
       x2="152.20572"
       y2="93.202377" />
    <linearGradient
       inkscape:collect="always"
       xlink:href="#linearGradient2221"
       id="linearGradient1854"
       gradientUnits="userSpaceOnUse"
       gradientTransform="matrix(0.5520917,0,0,0.8167341,7.8741477,48.018828)"
       x1="-19.342056"
       y1="-36.226715"
       x2="152.20572"
       y2="93.202377" />
    <linearGradient
       inkscape:collect="always"
       xlink:href="#linearGradient2221"
       id="linearGradient1856"
       gradientUnits="userSpaceOnUse"
       gradientTransform="matrix(0.5520917,0,0,0.8167341,7.8741477,48.018828)"
       x1="-19.342056"
       y1="-36.226715"
       x2="152.20572"
       y2="93.202377" />
    <radialGradient
       id="c"
       cx="-32"
       cy="9.6000004"
       gradientTransform="matrix(-0.95361261,0.95361261,4.7680633,4.7680633,-70.329285,251.47145)"
       gradientUnits="userSpaceOnUse"
       r="5.5999999">
      <stop
         offset="0"
         stop-color="#a50606"
         id="stop34-3" />
      <stop
         offset="1"
         stop-color="#f20909"
         id="stop36" />
    </radialGradient>
  </defs>
  <sodipodi:namedview
     id="base"
     pagecolor="#ffffff"
     bordercolor="#666666"
     borderopacity="1.0"
     inkscape:pageopacity="0.0"
     inkscape:pageshadow="2"
     inkscape:zoom="1.979899"
     inkscape:cx="20.61507"
     inkscape:cy="11.260337"
     inkscape:document-units="mm"
     inkscape:current-layer="layer1"
     showgrid="false"
     units="px"
     inkscape:window-width="1366"
     inkscape:window-height="706"
     inkscape:window-x="0"
     inkscape:window-y="0"
     inkscape:window-maximized="1" />
  <metadata
     id="metadata5">
    <rdf:RDF>
      <cc:Work
         rdf:about="">
        <dc:format>image/svg+xml</dc:format>
        <dc:type
           rdf:resource="http://purl.org/dc/dcmitype/StillImage" />
        <dc:title></dc:title>
      </cc:Work>
    </rdf:RDF>
  </metadata>
  <g
     inkscape:label="Layer 1"
     inkscape:groupmode="layer"
     id="layer1"
     transform="translate(0,-263.13332)">
    <g
       id="g1874"
       transform="matrix(1.45455,0,0,1.45455,-0.18500652,-135.47087)">
      <g
         transform="matrix(0.15753092,-0.0909505,0.0909505,0.15753092,-1.4333919,274.46359)"
         id="g3400">
        <path
           style="opacity:0.1;fill:none;stroke:#000000;stroke-width:11.63636398;stroke-miterlimit:4;stroke-dasharray:none;stroke-opacity:1"
           d="m 75.499304,104.76716 -1.139351,14.92505 -14.768513,2.35887 -47.955076,-0.14893 0.188173,-69.512388 63.811827,-0.02613 z"
           id="path3402"
           sodipodi:nodetypes="ccccccc"
           inkscape:connector-curvature="0" />
        <path
           sodipodi:nodetypes="ccccccc"
           id="path3404"
           d="m 75.499304,104.76716 -1.139351,14.92505 -14.768513,2.35887 -47.955076,-0.14893 0.188173,-69.512388 63.811827,-0.02613 z"
           style="opacity:0.15;fill:none;stroke:#000000;stroke-width:8.72727299;stroke-miterlimit:4;stroke-dasharray:none;stroke-opacity:1"
           inkscape:connector-curvature="0" />
        <path
           style="opacity:0.50555558;fill:none;stroke:#e3ad00;stroke-width:5.81818199;stroke-miterlimit:4;stroke-dasharray:none;stroke-opacity:1"
           d="m 75.499304,104.76716 -1.139351,14.92505 -14.768513,2.35887 -47.955076,-0.14893 0.188173,-69.512388 63.811827,-0.02613 z"
           id="path3406"
           sodipodi:nodetypes="ccccccc"
           inkscape:connector-curvature="0" />
        <path
           sodipodi:nodetypes="ccccccc"
           id="path3408"
           d="m 75.499304,104.76716 -1.139351,14.92505 -14.768513,2.35887 -47.955076,-0.14893 0.188173,-69.512388 63.811827,-0.02613 z"
           style="opacity:0.50555558;fill:none;stroke:#e3ad00;stroke-width:2.909091;stroke-miterlimit:4;stroke-dasharray:none;stroke-opacity:1"
           inkscape:connector-curvature="0" />
        <path
           style="fill:url(#radialGradient3416)"
           d="m 75.499304,104.76716 -1.139351,14.92505 -14.768513,2.35887 -47.955076,-0.14893 0.188173,-69.512388 63.811827,-0.02613 z"
           id="path3410"
           sodipodi:nodetypes="ccccccc"
           inkscape:connector-curvature="0" />
        <rect
           style="opacity:0.86885244;fill:url(#linearGradient1852);fill-opacity:1;fill-rule:nonzero;stroke:none;stroke-width:1;stroke-linecap:butt;stroke-linejoin:miter;stroke-miterlimit:4;stroke-dasharray:none;stroke-dashoffset:4;stroke-opacity:1"
           id="rect3412"
           width="63.971756"
           height="14.911496"
           x="11.766345"
           y="52.314266"
           transform="matrix(0.9999912,0.00420424,-0.00193197,0.9999981,0,0)" />
        <rect
           transform="matrix(0.9999912,0.00420424,-0.00193197,0.9999981,0,0)"
           y="52.314266"
           x="11.766345"
           height="14.911496"
           width="63.971756"
           id="rect3414"
           style="opacity:0.86885244;fill:url(#linearGradient1854);fill-opacity:1;fill-rule:nonzero;stroke:none;stroke-width:1;stroke-linecap:butt;stroke-linejoin:miter;stroke-miterlimit:4;stroke-dasharray:none;stroke-dashoffset:4;stroke-opacity:1" />
      </g>
      <g
         id="g3391"
         transform="matrix(0.18190104,0,0,0.18190104,1.7485884e-8,273.71665)">
        <path
           sodipodi:nodetypes="ccccccc"
           id="path3382"
           d="m 75.499304,104.76716 -1.139351,14.92505 -14.768513,2.35887 -47.955076,-0.14893 0.188173,-69.512388 63.811827,-0.02613 z"
           style="opacity:0.1;fill:none;stroke:#000000;stroke-width:11.63636398;stroke-miterlimit:4;stroke-dasharray:none;stroke-opacity:1"
           inkscape:connector-curvature="0" />
        <path
           style="opacity:0.15;fill:none;stroke:#000000;stroke-width:8.72727299;stroke-miterlimit:4;stroke-dasharray:none;stroke-opacity:1"
           d="m 75.499304,104.76716 -1.139351,14.92505 -14.768513,2.35887 -47.955076,-0.14893 0.188173,-69.512388 63.811827,-0.02613 z"
           id="path3380"
           sodipodi:nodetypes="ccccccc"
           inkscape:connector-curvature="0" />
        <path
           sodipodi:nodetypes="ccccccc"
           id="path3378"
           d="m 75.499304,104.76716 -1.139351,14.92505 -14.768513,2.35887 -47.955076,-0.14893 0.188173,-69.512388 63.811827,-0.02613 z"
           style="opacity:0.50555558;fill:none;stroke:#e3ad00;stroke-width:5.81818199;stroke-miterlimit:4;stroke-dasharray:none;stroke-opacity:1"
           inkscape:connector-curvature="0" />
        <path
           style="opacity:0.50555558;fill:none;stroke:#e3ad00;stroke-width:2.909091;stroke-miterlimit:4;stroke-dasharray:none;stroke-opacity:1"
           d="m 75.499304,104.76716 -1.139351,14.92505 -14.768513,2.35887 -47.955076,-0.14893 0.188173,-69.512388 63.811827,-0.02613 z"
           id="path2407"
           sodipodi:nodetypes="ccccccc"
           inkscape:connector-curvature="0" />
        <path
           sodipodi:nodetypes="ccccccc"
           id="path2099"
           d="m 75.499304,104.76716 -1.139351,14.92505 -14.768513,2.35887 -47.955076,-0.14893 0.188173,-69.512388 63.811827,-0.02613 z"
           style="fill:url(#radialGradient2399)"
           inkscape:connector-curvature="0" />
        <rect
           transform="matrix(0.9999912,0.00420424,-0.00193197,0.9999981,0,0)"
           y="52.314266"
           x="11.766345"
           height="14.911496"
           width="63.971756"
           id="rect2101"
           style="opacity:0.86885244;fill:url(#linearGradient1856);fill-opacity:1;fill-rule:nonzero;stroke:none;stroke-width:1;stroke-linecap:butt;stroke-linejoin:miter;stroke-miterlimit:4;stroke-dasharray:none;stroke-dashoffset:4;stroke-opacity:1" />
        <rect
           style="opacity:0.86885244;fill:url(#linearGradient3418);fill-opacity:1;fill-rule:nonzero;stroke:none;stroke-width:1;stroke-linecap:butt;stroke-linejoin:miter;stroke-miterlimit:4;stroke-dasharray:none;stroke-dashoffset:4;stroke-opacity:1"
           id="rect3384"
           width="63.971756"
           height="14.911496"
           x="11.766345"
           y="52.314266"
           transform="matrix(0.9999912,0.00420424,-0.00193197,0.9999981,0,0)" />
      </g>
    </g>
    <path
       style="opacity:0.57;fill:#525252;fill-opacity:1;stroke:none;stroke-width:11.63639927;stroke-miterlimit:4;stroke-dasharray:none;stroke-opacity:1"
       d="M 82.986328 4.0332031 A 5.8308785 5.8308785 0 0 0 82.822266 4.0390625 A 5.8308785 5.8308785 0 0 0 80.1875 4.8125 L 29.445312 34.138672 L 29.566406 34.078125 A 5.8308785 5.8308785 0 0 0 29.265625 34.240234 A 5.8308785 5.8308785 0 0 0 29.251953 34.248047 A 5.8308785 5.8308785 0 0 0 29.25 34.248047 A 5.8308785 5.8308785 0 0 0 29.228516 34.259766 L 24.8125 36.785156 A 5.8308785 5.8308785 0 0 0 22.650391 44.753906 L 22.666016 44.78125 L 16.583984 44.783203 L 16.521484 44.783203 L 10.994141 44.757812 A 5.8308785 5.8308785 0 0 0 5.1367188 50.576172 L 5.1074219 65.488281 A 5.8308785 5.8308785 0 0 0 5.25 66.763672 L 5.1074219 120.11133 A 5.8308785 5.8308785 0 0 0 10.919922 125.95703 L 36.707031 126.03711 L 90.628906 11.246094 L 88.294922 7.1875 A 5.8308785 5.8308785 0 0 0 83.240234 4.2636719 L 84.712891 4.2636719 A 5.8308785 5.8308785 0 0 0 82.986328 4.0332031 z "
       transform="matrix(0.26458333,0,0,0.26458333,0,263.13332)"
       id="path2673" />
    <path
       inkscape:connector-curvature="0"
       d="m 7.1894045,295.84573 c 0.7937502,0.39688 1.5086542,0.75458 2.3389162,1.16945 0.8212673,-1.77747 15.5038323,-30.98264 16.2764163,-32.65691 -0.79428,-0.39688 -1.509184,-0.7546 -2.339446,-1.16946 -0.820738,1.77748 -15.5033033,30.98316 -16.2758865,32.65692 z"
       id="path40"
       style="fill:#555555;stroke-width:0.52916664"
       sodipodi:nodetypes="ccccc" />
  </g>
</svg>
